X: 1473
T: On The River Bank
M:C|
L:1/8
N:"collected by Stack"
B:O'Neill's 1473
Z:"Transcribed by Bob Safranek, rjs@gsp.org"
K:G
d^cAF G2 (GF) | DEFG ABcA | d^cAF   GBAF  | DEFG ABcA  |
d^cAF G2 (GF) | DEFG ABcA | d^cAF   GBAF  | DFAc BG G2 ||
Addc  d2  cd  | efcd efge | fgef  d2 (dc) | AGFG ABcB  |
Addc  d2 (cd) | efcd efge | faef  d2 (dc) | Aceg fd d2 |]


